!!!COM: Music21
!!!OTL: mazurka_Swedishish
!!!OMV: mazurka_Swedishish
**kern
*clefG2
*k[f#]
*G:
*M3/4
=1
8g
8b
8dd
=
4.gg
8aa
8ggL
8ff#J
=
8ggL
8ddJ
8bL
8gJ
8aL
8bJ
=
8ccL
8bJ
8ccL
8ddJ
8eeL
8aaJ
=
16ggLL
16ff#J
8eeJ
4dd
8eeL
8ff#J
=
8ggL
8ff#J
8ggL
8aaJ
8ggL
8ff#J
=
8ggL
8ddJ
8bL
8gJ
8aL
8bJ
!!linebreak:original
=
8ccL
8aJ
8gL
8f#J
8eL
8f#J
=
4.g
8g
8bL
8ddJ
=
4.gg
8aa
8ggL
8ff#J
=
8ggL
8ddJ
8bL
8gJ
8aL
8bJ
=
8ccL
8bJ
8ccL
8ddJ
8eeL
8aaJ
=
16ggLL
16ff#J
8eeJ
4dd
8eeL
8ff#J
=
8ggL
8aaJ
4bb
8aaL
8ff#J
!!linebreak:original
=
8ggL
8ddJ
8bL
8gJ
8aL
8bJ
=
8ccL
8aJ
8gL
8f#J
8eL
8f#J
=
4.g
8g
8aL
8bJ
=||
8ccL
8aJ
8f#L
8eeJ
8ddL
8ccJ
=
4b
8aL
8bJ
16gLL
16aJ
8bJ
=
8ccL
8aJ
8f#L
8eeJ
8ddL
8ccJ
=
4b
4a
8aL
8bJ
!!linebreak:original
=
8ccL
8aJ
8f#L
8eeJ
8ddL
8ccJ
=
4b
8aL
8bJ
16gLL
16aJ
8bJ
=
8ccL
8aJ
8gL
8f#J
8eL
8f#J
=
4.g
8g
8aL
8bJ
=||
8ccL
8aJ
8f#L
8eeJ
8ddL
8ccJ
=
4b
8aL
8bJ
16gLL
16aJ
8bJ
=
8ccL
8aJ
8f#L
8eeJ
8ddL
8ccJ
!!linebreak:original
=
4b
4a
8aL
8bJ
=
8ccL
8aJ
8f#L
8eeJ
8ddL
8ccJ
=
4b
8aL
8bJ
16gLL
16aJ
8bJ
=
8ccL
8aJ
8gL
8f#J
8eL
8f#J
=
4.g
4.r
=||
*-
